packages/core/src/svgs/wallets/mono/obvious.svg

<svg width="24" height="24" viewBox="0 0 24 24" fill="none" xmlns="http://www.w3.org/2000/svg">
<path d="M9.01047 19.5303C7.61241 19.5303 6.38734 19.2226 5.33552 18.6071C4.29687 17.9917 3.478 17.142 2.87882 16.0583C2.29294 14.9611 2 13.6967 2 12.2651C2 10.8335 2.29294 9.57583 2.87882 8.49206C3.478 7.39497 4.29687 6.53861 5.33552 5.92315C6.38734 5.30769 7.61241 5 9.01047 5C10.3953 5 11.6137 5.30769 12.6655 5.92315C13.7174 6.53861 14.5363 7.39497 15.1221 8.49206C15.708 9.57583 16.001 10.8335 16.001 12.2651C16.001 13.6967 15.708 14.9611 15.1221 16.0583C14.5363 17.142 13.7174 17.9917 12.6655 18.6071C11.6137 19.2226 10.3953 19.5303 9.01047 19.5303ZM9.01047 17.2223C10.342 17.2223 11.4006 16.7808 12.1862 15.8977C12.9851 15.0147 13.3845 13.8038 13.3845 12.2651C13.3845 10.7265 12.9851 9.51561 12.1862 8.63255C11.4006 7.74949 10.342 7.30796 9.01047 7.30796C7.67894 7.30796 6.61369 7.74949 5.81482 8.63255C5.01595 9.51561 4.61643 10.7265 4.61643 12.2651C4.61643 13.8038 5.01595 15.0147 5.81482 15.8977C6.61369 16.7808 7.67894 17.2223 9.01047 17.2223Z" fill="white"/>
<path fill-rule="evenodd" clip-rule="evenodd" d="M22 5.96008L18.6908 5.3779L17.4918 15.3815L19.698 15.7697L22 5.96008ZM17.8169 19.9785C18.5784 20.1125 19.3046 19.6051 19.4388 18.8453C19.5731 18.0853 19.0646 17.3607 18.3032 17.2267C17.5417 17.0927 16.8155 17.6001 16.6813 18.3601C16.5469 19.1199 17.0554 19.8445 17.8169 19.9785Z" fill="white"/>
</svg>

<svg xmlns="http://www.w3.org/2000/svg" width="24" height="24" fill="none" viewBox="0 0 24 24">
    <path fill="#fff" d="M9.01 19.53q-2.097 0-3.674-.923a6.63 6.63 0 0 1-2.457-2.549Q2 14.413 2 12.265t.879-3.773q.899-1.645 2.457-2.569Q6.913 5 9.01 5q2.078 0 3.656.923a6.4 6.4 0 0 1 2.456 2.57q.879 1.624.879 3.772t-.879 3.793a6.45 6.45 0 0 1-2.456 2.55q-1.577.922-3.656.922m0-2.308q1.998 0 3.176-1.324 1.199-1.325 1.198-3.633 0-2.309-1.198-3.632-1.178-1.325-3.176-1.325-1.997 0-3.195 1.325-1.2 1.325-1.199 3.632t1.199 3.633q1.199 1.324 3.195 1.324"/>
    <path fill="#fff" fill-rule="evenodd" d="m22 5.96-3.31-.582-1.198 10.004 2.206.388zm-4.183 14.02a1.397 1.397 0 1 0 .486-2.752 1.397 1.397 0 1 0-.486 2.752" clip-rule="evenodd"/>
</svg>
